www/img/mcc-icons/coins.svg

<svg width="29" height="41" viewBox="0 0 29 41" xmlns="http://www.w3.org/2000/svg"><g class="nc-icon-wrapper" fill="#444444"><title>coins</title><g transform="translate(-148 -999) translate(148 999) translate(.5 .5)" stroke="#444444" stroke-width="1" fill="none" fill-rule="evenodd"><path d="M12.5 32.3c-1.3.4-2.8.7-4.5.7-4.4 0-8-1.8-8-4 0-1 .7-1.8 1.8-2.5"></path><path d="M12.5 27.3c-1.3.4-2.8.7-4.5.7-4.4 0-8-1.8-8-4 0-.9.6-1.8 1.7-2.5"></path><path d="M12.5 22.3c-1.3.4-2.8.7-4.5.7-4.4 0-8-1.8-8-4 0-1 .7-1.8 1.8-2.5"></path><path d="M12.5 17.3c-1.3.4-2.8.7-4.5.7-4.4 0-8-1.8-8-4 0-.9.7-1.8 1.8-2.5"></path><path d="M14.2 11.5c.6.3 1 .7 1.3 1.2"></path><path d="M14.3 6.5C15.4 7.2 16 8 16 9c0 2.2-3.6 4-8 4s-8-1.8-8-4c0-1 .7-1.8 1.8-2.5"></path><ellipse cx="8" cy="4" rx="8" ry="4"></ellipse><path d="M26.2 33.5c1.1.7 1.8 1.5 1.8 2.5 0 2.2-3.6 4-8 4s-8-1.8-8-4c0-.9.7-1.8 1.8-2.5"></path><path d="M26.2 28.5c1.1.7 1.8 1.5 1.8 2.5 0 2.2-3.6 4-8 4s-8-1.8-8-4c0-1 .7-1.8 1.8-2.5"></path><path d="M26.2 23.4c1.1.7 1.8 1.6 1.8 2.6 0 2.2-3.6 4-8 4s-8-1.8-8-4c0-.9.7-1.8 1.7-2.5"></path><path d="M26.2 18.5c1.1.7 1.8 1.5 1.8 2.5 0 2.2-3.6 4-8 4s-8-1.8-8-4c0-1 .7-1.8 1.8-2.5"></path><ellipse cx="20" cy="16" rx="8" ry="4"></ellipse></g></g></svg>

<?xml version="1.0" encoding="UTF-8" standalone="no"?>
<svg width="29px" height="41px" viewBox="0 0 29 41" version="1.1" xmlns="http://www.w3.org/2000/svg" xmlns:xlink="http://www.w3.org/1999/xlink">
    <!-- Generator: Sketch 3.7.2 (28276) - http://www.bohemiancoding.com/sketch -->
    <title>coins</title>
    <desc>Created with Sketch.</desc>
    <defs></defs>
    <g id="Page-1" stroke="none" stroke-width="1" fill="none" fill-rule="evenodd">
        <g id="-Transaction-icons" transform="translate(-148.000000, -999.000000)" stroke="#9B9BAB">
            <g id="coins" transform="translate(148.000000, 999.000000)">
                <g id="Group" transform="translate(0.500000, 0.500000)">
                    <path d="M12.5,32.3 C11.2,32.7 9.7,33 8,33 C3.6,33 0,31.2 0,29 C0,28 0.7,27.2 1.8,26.5" id="Shape"></path>
                    <path d="M12.5,27.3 C11.2,27.7 9.7,28 8,28 C3.6,28 0,26.2 0,24 C0,23.1 0.6,22.2 1.7,21.5" id="Shape"></path>
                    <path d="M12.5,22.3 C11.2,22.7 9.7,23 8,23 C3.6,23 0,21.2 0,19 C0,18 0.7,17.2 1.8,16.5" id="Shape"></path>
                    <path d="M12.5,17.3 C11.2,17.7 9.7,18 8,18 C3.6,18 0,16.2 0,14 C0,13.1 0.7,12.2 1.8,11.5" id="Shape"></path>
                    <path d="M14.2,11.5 C14.8,11.8 15.2,12.2 15.5,12.7" id="Shape"></path>
                    <path d="M14.3,6.5 C15.4,7.2 16,8 16,9 C16,11.2 12.4,13 8,13 C3.6,13 0,11.2 0,9 C0,8 0.7,7.2 1.8,6.5" id="Shape"></path>
                    <ellipse id="Oval" cx="8" cy="4" rx="8" ry="4"></ellipse>
                    <path d="M26.2,33.5 C27.3,34.2 28,35 28,36 C28,38.2 24.4,40 20,40 C15.6,40 12,38.2 12,36 C12,35.1 12.7,34.2 13.8,33.5" id="Shape"></path>
                    <path d="M26.2,28.5 C27.3,29.2 28,30 28,31 C28,33.2 24.4,35 20,35 C15.6,35 12,33.2 12,31 C12,30 12.7,29.2 13.8,28.5" id="Shape"></path>
                    <path d="M26.2,23.4 C27.3,24.1 28,25 28,26 C28,28.2 24.4,30 20,30 C15.6,30 12,28.2 12,26 C12,25.1 12.7,24.2 13.7,23.5" id="Shape"></path>
                    <path d="M26.2,18.5 C27.3,19.2 28,20 28,21 C28,23.2 24.4,25 20,25 C15.6,25 12,23.2 12,21 C12,20 12.7,19.2 13.8,18.5" id="Shape"></path>
                    <ellipse id="Oval" cx="20" cy="16" rx="8" ry="4"></ellipse>
                </g>
            </g>
        </g>
    </g>
</svg>
